src/assets/svgicons/gruop-ua-tshirt.svg

<svg width="69" height="62" viewBox="0 0 69 62" fill="none" xmlns="http://www.w3.org/2000/svg">
<g clip-path="url(#clip0_1108_265)">
<path d="M66.4753 16.4072C63.9138 12.2957 61.9992 9.81484 59.9636 7.94061C57.9141 6.04001 56.8358 5.33872 53.3449 3.55914C51.5249 2.64219 49.5018 1.57786 48.8424 1.20084C47.01 0.136502 47.2117 0.148914 45.4865 0.999143C43.7208 1.84937 41.3346 2.67012 39.3254 3.11541C38.0842 3.38537 37.5318 3.42571 34.8089 3.42571C32.086 3.42571 31.5197 3.38537 30.1854 3.11541C27.6099 2.60341 24.6993 1.53752 22.8514 0.446804C22.4061 0.190805 21.8941 -0.0108919 21.6925 0.00152018C21.4892 0.00152018 20.5319 0.47318 19.5607 1.03948C18.6034 1.60578 16.6081 2.77873 15.1389 3.61499C9.54566 6.86231 6.41781 9.7745 3.00759 14.91C1.80671 16.7423 0.365359 19.2775 0.0814321 20.0874C-0.148192 20.7747 0.107808 21.355 0.849431 21.8127C1.15973 22.002 4.34033 23.6466 7.92743 25.4525C13.4136 28.2297 14.5058 28.7417 14.8286 28.6611C15.0721 28.5943 15.3545 28.3104 15.6912 27.8248C15.9612 27.4074 16.1892 27.0971 16.2172 27.1096C16.3785 27.2849 14.8829 43.2732 13.4943 56.2144C13.2243 58.7759 13.0366 61.0272 13.0893 61.2289C13.291 62.0372 12.025 61.9969 34.4567 61.9969H54.9476L55.3246 61.6726L55.6892 61.3483L55.3246 56.4549C54.3533 43.6347 53.3433 29.0893 53.3433 27.9024V27.35L53.9903 28.0234C54.3673 28.4144 54.7583 28.6967 54.9212 28.6967C55.1912 28.6967 58.0491 27.1732 65.2481 23.1827C67.971 21.6591 68.7266 21.1874 68.7933 20.9314C68.8879 20.5544 68.078 18.9765 66.4738 16.4026L66.4753 16.4072ZM24.3207 3.62741C24.375 3.62741 24.901 3.81669 25.4673 4.03235C28.4865 5.20529 31.83 5.71729 35.9415 5.61024C39.0151 5.54352 40.2284 5.34028 42.8706 4.4916C43.6789 4.22163 44.3663 4.0339 44.3942 4.06028C44.4888 4.16888 42.7232 6.27118 41.9009 7.03918C39.6093 9.14303 37.1424 10.2213 34.5809 10.2337C31.6423 10.2337 28.9318 9.04684 26.6666 6.74284C25.6954 5.75763 24.0911 3.62741 24.3207 3.62741ZM15.5314 24.7388C14.8844 25.6154 14.3321 26.371 14.3042 26.3834C14.2638 26.4377 2.92535 20.3837 2.73762 20.196C2.67091 20.1417 2.98121 19.4684 3.46528 18.6321C5.4869 15.1536 7.59075 12.2957 9.57204 10.3424C10.6907 9.23612 13.1312 7.26881 13.3732 7.26881C13.4524 7.26881 13.7084 7.56514 13.952 7.94216C14.9496 9.46575 15.8929 12.3376 16.3382 15.2219C16.4732 16.0721 16.5942 17.9324 16.6345 19.8857L16.7152 23.1346L15.5283 24.7388H15.5314ZM53.5326 59.5998C53.5869 59.8294 52.6017 59.8434 34.4567 59.8434C23.9421 59.8434 15.3266 59.817 15.3266 59.7891C15.3266 59.7611 15.6229 56.9436 16 53.5473C18.2233 33.0425 19.0332 22.2176 18.6965 17.7415C18.3722 13.3461 17.3622 9.70623 15.7843 7.18658C15.4476 6.63424 15.204 6.13465 15.2583 6.08035C15.3669 5.95933 21.0284 2.6965 21.123 2.6965C21.1649 2.68409 21.3666 3.03473 21.5823 3.45208C22.6466 5.64903 24.8188 8.33159 26.6511 9.7202C27.824 10.6092 29.9403 11.6208 31.4375 11.9978C32.9875 12.3888 35.791 12.4291 37.2076 12.0785C40.9421 11.1476 44.312 8.39831 46.8052 4.2325C47.1698 3.63982 47.4662 3.14023 47.4786 3.12627C47.5189 3.05955 53.815 6.45581 53.8553 6.57683C53.8817 6.64355 53.7079 7.02212 53.4643 7.4131C52.4527 9.12597 51.6444 11.4176 51.1588 13.9651C50.8764 15.3941 50.8485 15.9464 50.8624 19.4652C50.8624 21.6079 50.9431 24.4937 51.0238 25.8683C51.1184 27.243 51.3481 30.6672 51.5358 33.4847C52.0897 42.0444 53.3961 58.9916 53.531 59.5967L53.5326 59.5998ZM66.2581 20.4117C66.1914 20.452 55.8645 26.1011 55.5403 26.2624C55.2703 26.3974 55.1757 26.3028 54.192 24.9685L53.1401 23.5256L52.9787 21.1533C52.6544 16.5158 53.2611 12.5936 54.7847 9.49212C55.2703 8.4945 55.7823 7.6722 55.9173 7.6722C55.9576 7.6722 56.3889 7.96854 56.8606 8.33314C59.0451 9.97775 61.1878 12.35 63.304 15.4918C64.3156 16.9875 66.3372 20.345 66.2566 20.4132L66.2581 20.4117Z" fill="#F6F6F6"/>
<path d="M44.3716 20.1621C44.1218 20.0302 43.8193 20.0504 43.5865 20.2102C41.3182 21.785 39.8133 24.2395 39.4409 26.9763L38.7148 32.3446L38.7101 32.3679C38.6186 32.7775 38.8777 33.1824 39.2873 33.2739C39.9932 33.4306 40.4928 34.0683 40.4742 34.796C40.4571 35.6105 39.7357 36.2761 38.8699 36.2761H38.1112C37.984 36.2761 37.8583 36.2839 37.7342 36.2963C37.711 36.2513 37.6908 36.2032 37.6691 36.1551L37.0407 34.9356C35.8088 32.5354 35.1649 29.8761 35.1618 27.178V17.2934C35.1618 16.8729 34.822 16.5347 34.4031 16.5347C33.9842 16.5347 33.6444 16.8744 33.6444 17.2934V27.178C33.6444 29.8637 32.9959 32.5463 31.7656 34.9341L31.1372 36.1535C31.1139 36.1985 31.0938 36.2466 31.072 36.2947C30.9479 36.2839 30.8207 36.2777 30.695 36.2777H29.9363C29.0706 36.2777 28.3491 35.6121 28.329 34.7975C28.3134 34.073 28.8084 33.4368 29.5159 33.2755C29.9255 33.1855 30.183 32.779 30.093 32.371L29.3623 26.9795C28.993 24.2488 27.4818 21.7803 25.2166 20.2133C24.9839 20.0535 24.6829 20.0333 24.4316 20.1652C24.1818 20.2971 24.0266 20.5562 24.0266 20.8386V40.8345C24.0266 41.2549 24.3664 41.5931 24.7853 41.5931H27.8232C28.2436 41.5931 28.5819 41.2534 28.5819 40.8345C28.5819 40.4156 28.2421 40.0758 27.8232 40.0758H25.5455V22.4661C26.8054 23.7477 27.6184 25.4031 27.8588 27.1843L28.5151 32.0312C27.4492 32.554 26.7852 33.6479 26.8116 34.8332C26.8519 36.4685 28.2545 37.7966 29.9379 37.7966H30.5119C29.9193 40.0044 30.2466 42.4061 31.4739 44.3828L33.7624 48.0707C33.8989 48.291 34.1425 48.4276 34.4047 48.4276C34.6669 48.4276 34.9105 48.291 35.0501 48.0676L37.3386 44.3797C38.5643 42.4046 38.8901 40.0028 38.3005 37.7935H38.8746C40.5549 37.7966 41.9574 36.467 41.9978 34.8317C42.0257 33.6261 41.3399 32.5416 40.2942 32.0296L40.9505 27.1827C41.191 25.3938 42.0133 23.7383 43.2638 22.4645V40.0742H40.7333C40.3128 40.0742 39.9746 40.414 39.9746 40.8329C39.9746 41.2518 40.3144 41.5916 40.7333 41.5916H44.0241C44.4445 41.5916 44.7828 41.2518 44.7828 40.8329V20.8355C44.7828 20.5531 44.626 20.2924 44.3747 20.1621H44.3716ZM33.1154 35.6276C33.6444 34.6005 34.0742 33.5222 34.4016 32.4129C34.7274 33.5222 35.1587 34.6005 35.6878 35.6276L36.2339 36.6935C35.4892 37.041 34.8546 37.5794 34.3985 38.2558C33.9423 37.5794 33.3078 37.041 32.563 36.6935L33.1154 35.6276ZM36.0446 43.5775L34.4016 46.226L32.7585 43.5775C31.7392 41.9345 31.477 39.9299 31.9936 38.1007C32.968 38.5817 33.6413 39.5839 33.6413 40.7429V42.2619C33.6413 42.6823 33.9811 43.0205 34.4 43.0205C34.8189 43.0205 35.1587 42.6808 35.1587 42.2619V40.7429C35.1587 39.5839 35.8321 38.5832 36.8064 38.1007C37.3231 39.9315 37.0624 41.936 36.0415 43.5775H36.0446Z" fill="#F6F6F6"/>
</g>
<defs>
<clipPath id="clip0_1108_265">
<rect width="68.8018" height="62" fill="white"/>
</clipPath>
</defs>
</svg>

<svg viewBox="0 0 69 62" xmlns="http://www.w3.org/2000/svg"><g><path d="M66.475 16.407C63.914 12.296 62 9.815 59.964 7.941c-2.05-1.901-3.128-2.602-6.62-4.382-1.82-.917-3.842-1.981-4.502-2.358C47.01.137 47.212.149 45.487.999c-1.766.85-4.152 1.671-6.162 2.116-1.24.27-1.793.31-4.516.31s-3.29-.04-4.624-.31C27.61 2.603 24.7 1.538 22.851.447c-.445-.256-.957-.458-1.158-.445-.204 0-1.161.471-2.132 1.037-.958.567-2.953 1.74-4.422 2.576C9.546 6.862 6.418 9.775 3.008 14.91 1.807 16.742.365 19.278.08 20.087c-.23.688.027 1.268.768 1.726.31.189 3.491 1.834 7.078 3.64 5.487 2.777 6.579 3.289 6.902 3.208.243-.067.525-.35.862-.836.27-.418.498-.728.526-.715.162.175-1.334 16.163-2.723 29.104-.27 2.562-.457 4.813-.405 5.015.202.808-1.064.768 21.368.768h20.49l.378-.324.364-.325-.364-4.893c-.972-12.82-1.982-27.366-1.982-28.553v-.552l.647.673c.377.391.768.674.931.674.27 0 3.128-1.524 10.327-5.514 2.723-1.524 3.479-1.996 3.545-2.252.095-.377-.715-1.954-2.32-4.528zM24.321 3.627c.054 0 .58.19 1.146.405 3.02 1.173 6.363 1.685 10.474 1.578 3.074-.066 4.287-.27 6.93-1.118.808-.27 1.495-.458 1.523-.432.095.109-1.67 2.211-2.493 2.98-2.292 2.103-4.759 3.181-7.32 3.194-2.939 0-5.65-1.187-7.914-3.491-.972-.985-2.576-3.116-2.346-3.116M15.53 24.74c-.647.876-1.199 1.632-1.227 1.644-.04.055-11.379-6-11.566-6.187-.067-.054.243-.728.727-1.564 2.022-3.478 4.126-6.336 6.107-8.29 1.119-1.106 3.56-3.073 3.801-3.073.08 0 .335.296.579.673.998 1.524 1.94 4.396 2.386 7.28.135.85.256 2.71.296 4.664l.081 3.249-1.187 1.604zm38.002 34.86c.054.23-.931.244-19.076.244-10.515 0-19.13-.026-19.13-.054s.296-2.845.673-6.242c2.223-20.504 3.033-31.33 2.697-35.805-.325-4.396-1.335-8.036-2.913-10.555-.336-.553-.58-1.052-.526-1.107.109-.12 5.77-3.383 5.865-3.383.042-.013.244.338.46.755 1.064 2.197 3.236 4.88 5.068 6.268 1.173.89 3.29 1.9 4.787 2.278 1.55.39 4.353.431 5.77.08 3.734-.93 7.104-3.68 9.597-7.845.365-.593.661-1.093.674-1.107.04-.066 6.336 3.33 6.376 3.45.027.068-.147.446-.39.837-1.012 1.713-1.82 4.005-2.306 6.552-.283 1.43-.31 1.981-.297 5.5 0 2.143.081 5.029.162 6.403.094 1.375.324 4.8.512 7.617.554 8.56 1.86 25.507 1.995 26.112zm12.725-39.187c-.067.04-10.393 5.69-10.718 5.85-.27.135-.364.04-1.348-1.294l-1.052-1.442-.161-2.373c-.325-4.637.282-8.56 1.806-11.66.485-.998.997-1.82 1.132-1.82.04 0 .472.296.944.66 2.184 1.645 4.327 4.017 6.443 7.159 1.012 1.495 3.033 4.853 2.953 4.921z"/><path d="M44.372 20.162a.76.76 0 0 0-.785.048 9.86 9.86 0 0 0-4.146 6.766l-.726 5.369-.005.023a.76.76 0 0 0 .577.906 1.52 1.52 0 0 1 1.187 1.522c-.017.815-.738 1.48-1.604 1.48h-.759q-.19.001-.377.02-.033-.069-.065-.14l-.628-1.22a17 17 0 0 1-1.88-7.758v-9.885a.758.758 0 1 0-1.517 0v9.885c0 2.686-.648 5.368-1.878 7.756l-.629 1.22q-.033.068-.065.14a4 4 0 0 0-.377-.016h-.759c-.865 0-1.587-.666-1.607-1.48a1.53 1.53 0 0 1 1.187-1.523.76.76 0 0 0 .577-.904l-.73-5.392a9.85 9.85 0 0 0-4.146-6.766.76.76 0 0 0-1.19.626v19.996c0 .42.34.758.758.758h3.038a.758.758 0 1 0 0-1.517h-2.277v-17.61a8.32 8.32 0 0 1 2.313 4.718l.656 4.847a3.05 3.05 0 0 0-1.703 2.802c.04 1.636 1.442 2.964 3.126 2.964h.574a8.4 8.4 0 0 0 .962 6.586l2.288 3.688a.757.757 0 0 0 1.288-.003l2.289-3.688a8.41 8.41 0 0 0 .962-6.587h.574c1.68.004 3.082-1.326 3.123-2.961a3.05 3.05 0 0 0-1.704-2.802l.657-4.847a8.33 8.33 0 0 1 2.313-4.718v17.61h-2.53a.758.758 0 1 0 0 1.517h3.29c.42 0 .759-.34.759-.76V20.837a.76.76 0 0 0-.408-.674zM33.115 35.628a18.4 18.4 0 0 0 1.287-3.215c.325 1.11.757 2.188 1.286 3.215l.546 1.066a4.5 4.5 0 0 0-1.836 1.562 4.5 4.5 0 0 0-1.835-1.562zm2.93 7.95-1.643 2.648-1.644-2.648a6.88 6.88 0 0 1-.764-5.477 2.95 2.95 0 0 1 1.647 2.642v1.519a.758.758 0 1 0 1.518 0v-1.52a2.95 2.95 0 0 1 1.647-2.641 6.87 6.87 0 0 1-.764 5.477z"/></g></svg>
